Numix-GalliumOS/48/devices/pda.svg

<?xml version="1.0" encoding="UTF-8" standalone="no"?>
<svg
   xmlns:dc="http://purl.org/dc/elements/1.1/"
   xmlns:cc="http://creativecommons.org/ns#"
   xmlns:rdf="http://www.w3.org/1999/02/22-rdf-syntax-ns#"
   xmlns:svg="http://www.w3.org/2000/svg"
   xmlns="http://www.w3.org/2000/svg"
   xmlns:sodipodi="http://sodipodi.sourceforge.net/DTD/sodipodi-0.dtd"
   xmlns:inkscape="http://www.inkscape.org/namespaces/inkscape"
   viewBox="0 0 48 48"
   id="svg3036"
   version="1.1"
   inkscape:version="0.91 r"
   sodipodi:docname="pda.svg">
  <metadata
     id="metadata3046">
    <rdf:RDF>
      <cc:Work
         rdf:about="">
        <dc:format>image/svg+xml</dc:format>
        <dc:type
           rdf:resource="http://purl.org/dc/dcmitype/StillImage" />
      </cc:Work>
    </rdf:RDF>
  </metadata>
  <defs
     id="defs3044" />
  <sodipodi:namedview
     pagecolor="#ffffff"
     bordercolor="#666666"
     borderopacity="1"
     objecttolerance="10"
     gridtolerance="10"
     guidetolerance="10"
     inkscape:pageopacity="0"
     inkscape:pageshadow="2"
     inkscape:window-width="1920"
     inkscape:window-height="1056"
     id="namedview3042"
     showgrid="true"
     inkscape:zoom="13.906433"
     inkscape:cx="32.930127"
     inkscape:cy="27.235105"
     inkscape:window-x="0"
     inkscape:window-y="24"
     inkscape:window-maximized="1"
     inkscape:current-layer="svg3036">
    <inkscape:grid
       type="xygrid"
       id="grid4134" />
  </sodipodi:namedview>
  <rect
     style="opacity:1;fill:#5aa9e1;fill-opacity:1;fill-rule:nonzero;stroke:none;stroke-width:0.30000001;stroke-linecap:round;stroke-linejoin:miter;stroke-miterlimit:4;stroke-dasharray:none;stroke-dashoffset:0;stroke-opacity:1"
     id="rect4166"
     width="20"
     height="22"
     x="14"
     y="9" />
  <rect
     style="opacity:1;fill:#a9aeb7;fill-opacity:1;fill-rule:nonzero;stroke:none;stroke-width:0.30000001;stroke-linecap:round;stroke-linejoin:miter;stroke-miterlimit:4;stroke-dasharray:none;stroke-dashoffset:0;stroke-opacity:1"
     id="rect4157"
     width="20"
     height="8"
     x="14"
     y="30.5"
     rx="1"
     ry="1" />
  <path
     style="fill:#fdf6e3;fill-rule:evenodd;stroke:none;stroke-width:1px;stroke-linecap:butt;stroke-linejoin:miter;stroke-opacity:1;fill-opacity:0.1882353"
     d="M 30,9 17,31 34,31 34,9 Z"
     id="path4168"
     inkscape:connector-curvature="0" />
  <g
     transform="translate(0 -1004.3622)"
     id="g3038"
     style="fill:#073642;fill-opacity:1">
    <path
       style="fill:#073642;line-height:normal;color:#000;fill-opacity:1"
       d="M 14.5 8 C 13.686297 8 13 8.6863 13 9.5 L 13 37.5 C 13 37.569 13.0756 38.17625 13.40625 38.53125 C 13.736898 38.88635 14.185131 39.1173 14.84375 39.3125 C 16.160987 39.7029 18.45573 40 23 40 L 25 40 C 29.049804 40 31.35501 39.6846 32.75 39.3125 C 33.447495 39.1264 33.920676 38.9364 34.28125 38.6875 C 34.641824 38.4386 35 38.1709 35 37.5 L 35 9.5 C 35 8.6863 34.313703 8 33.5 8 L 14.5 8 z M 15 10 L 33 10 L 33 30 L 15 30 L 15 10 z M 16 31 C 16.552285 31 17 31.447715 17 32 C 17 32.552285 16.552285 33 16 33 C 15.447715 33 15 32.552285 15 32 C 15 31.447715 15.447715 31 16 31 z M 19 31 C 19.552285 31 20 31.447715 20 32 C 20 32.552285 19.552285 33 19 33 C 18.447715 33 18 32.552285 18 32 C 18 31.447715 18.447715 31 19 31 z M 22 31 C 22.552285 31 23 31.447715 23 32 C 23 32.552285 22.552285 33 22 33 C 21.447715 33 21 32.552285 21 32 C 21 31.447715 21.447715 31 22 31 z M 26 31 C 26.552285 31 27 31.447715 27 32 C 27 32.552285 26.552285 33 26 33 C 25.447715 33 25 32.552285 25 32 C 25 31.447715 25.447715 31 26 31 z M 29 31 C 29.552285 31 30 31.447715 30 32 C 30 32.552285 29.552285 33 29 33 C 28.447715 33 28 32.552285 28 32 C 28 31.447715 28.447715 31 29 31 z M 32 31 C 32.552285 31 33 31.447715 33 32 C 33 32.552285 32.552285 33 32 33 C 31.447715 33 31 32.552285 31 32 C 31 31.447715 31.447715 31 32 31 z M 16 34 C 16.552285 34 17 34.447715 17 35 C 17 35.552285 16.552285 36 16 36 C 15.447715 36 15 35.552285 15 35 C 15 34.447715 15.447715 34 16 34 z M 19 34 C 19.552285 34 20 34.447715 20 35 C 20 35.552285 19.552285 36 19 36 C 18.447715 36 18 35.552285 18 35 C 18 34.447715 18.447715 34 19 34 z M 24 34 C 25.104569 34 26 34.895431 26 36 C 26 37.104569 25.104569 38 24 38 C 22.895431 38 22 37.104569 22 36 C 22 34.895431 22.895431 34 24 34 z M 29 34 C 29.552285 34 30 34.447715 30 35 C 30 35.552285 29.552285 36 29 36 C 28.447715 36 28 35.552285 28 35 C 28 34.447715 28.447715 34 29 34 z M 32 34 C 32.552285 34 33 34.447715 33 35 C 33 35.552285 32.552285 36 32 36 C 31.447715 36 31 35.552285 31 35 C 31 34.447715 31.447715 34 32 34 z "
       transform="translate(0 1004.3622)"
       id="path3040" />
  </g>
  <path
     style="fill:#eee8d5;fill-opacity:0.1485944;stroke:none"
     d="m 32,8 -2,0 0,31.777344 c 0.807805,-0.08461 1.444977,-0.190247 2,-0.304688 z"
     id="rect3767-3"
     inkscape:connector-curvature="0"
     sodipodi:nodetypes="ccccc" />
  <g
     style="fill:#073642;fill-opacity:1"
     id="g4185"
     transform="translate(0 -1004.3622)" />
</svg>

<svg xmlns="http://www.w3.org/2000/svg" viewBox="0 0 48 48">
 <rect width="20" height="22" x="14" y="9" style="fill:#5aa9e1;opacity:1;fill-opacity:1;stroke:none;fill-rule:nonzero"/>
 <rect width="20" height="8" x="14" y="30.5" rx="1" style="fill:#a9aeb7;opacity:1;fill-opacity:1;stroke:none;fill-rule:nonzero"/>
 <path d="m 30 9 -13 22 17 0 0 -22" style="fill:#fdf6e3;fill-opacity:0.188;stroke:none;fill-rule:evenodd"/>
 <g transform="translate(0 -1004.3622)" style="fill:#073642;fill-opacity:1">
  <path d="m 14.5 8 c -0.814 0 -1.5 0.686 -1.5 1.5 l 0 28 c 0 0.069 0.076 0.676 0.406 1.031 c 0.331 0.355 0.779 0.586 1.438 0.781 c 1.317 0.39 3.612 0.688 8.156 0.688 l 2 0 c 4.05 0 6.355 -0.315 7.75 -0.688 c 0.697 -0.186 1.171 -0.376 1.531 -0.625 c 0.361 -0.249 0.719 -0.517 0.719 -1.188 l 0 -28 c 0 -0.814 -0.686 -1.5 -1.5 -1.5 l -19 0 z m 0.5 2 l 18 0 l 0 20 l -18 0 l 0 -20 z m 1 21 c 0.552 0 1 0.448 1 1 c 0 0.552 -0.448 1 -1 1 c -0.552 0 -1 -0.448 -1 -1 c 0 -0.552 0.448 -1 1 -1 z m 3 0 c 0.552 0 1 0.448 1 1 c 0 0.552 -0.448 1 -1 1 c -0.552 0 -1 -0.448 -1 -1 c 0 -0.552 0.448 -1 1 -1 z m 3 0 c 0.552 0 1 0.448 1 1 c 0 0.552 -0.448 1 -1 1 c -0.552 0 -1 -0.448 -1 -1 c 0 -0.552 0.448 -1 1 -1 z m 4 0 c 0.552 0 1 0.448 1 1 c 0 0.552 -0.448 1 -1 1 c -0.552 0 -1 -0.448 -1 -1 c 0 -0.552 0.448 -1 1 -1 z m 3 0 c 0.552 0 1 0.448 1 1 c 0 0.552 -0.448 1 -1 1 c -0.552 0 -1 -0.448 -1 -1 c 0 -0.552 0.448 -1 1 -1 z m 3 0 c 0.552 0 1 0.448 1 1 c 0 0.552 -0.448 1 -1 1 c -0.552 0 -1 -0.448 -1 -1 c 0 -0.552 0.448 -1 1 -1 z m -16 3 c 0.552 0 1 0.448 1 1 c 0 0.552 -0.448 1 -1 1 c -0.552 0 -1 -0.448 -1 -1 c 0 -0.552 0.448 -1 1 -1 z m 3 0 c 0.552 0 1 0.448 1 1 c 0 0.552 -0.448 1 -1 1 c -0.552 0 -1 -0.448 -1 -1 c 0 -0.552 0.448 -1 1 -1 z m 5 0 c 1.105 0 2 0.895 2 2 c 0 1.105 -0.895 2 -2 2 c -1.105 0 -2 -0.895 -2 -2 c 0 -1.105 0.895 -2 2 -2 z m 5 0 c 0.552 0 1 0.448 1 1 c 0 0.552 -0.448 1 -1 1 c -0.552 0 -1 -0.448 -1 -1 c 0 -0.552 0.448 -1 1 -1 z m 3 0 c 0.552 0 1 0.448 1 1 c 0 0.552 -0.448 1 -1 1 c -0.552 0 -1 -0.448 -1 -1 c 0 -0.552 0.448 -1 1 -1 z" transform="translate(0 1004.3622)" style="color:#000"/>
 </g>
 <path d="m 32 8 -2 0 0 31.777 c 0.808 -0.085 1.445 -0.19 2 -0.305 z" style="fill:#eee8d5;fill-opacity:0.149;stroke:none"/>
</svg>
